!! J.S. Bach "Sarabande" from Partita No. 1, solo violin, BWV 1002.
!! From 'Neue Ausgabe Saemtlicher Werke' Serie VI: Kammermusikwerke,
!! Band 1 ('Werke fuer Violine') Baerenreiter Kassel (Basel) 1958; p.15
!! NOTE: This 'monophonic' work has been recoded here as a four-part work.
!! NOTE: The repeats at the end of bar 8 and at the end of the movement
!!       have been expanded in this encoding.
**kern	**kern	**kern	**kern
*M3/4	*M3/4	*M3/4	*M3/4
=1	=1	=1	=1
4B	4f#	4dd	4ff#
4r	4e	4dd	4gg
4r	4a	4cc#	8ff#
.	.	.	8ee
=2	=2	=2	=2
2.r	4.d	4.dd	4.ff#
.	8r	8r	8ee
.	4r	4r	8dd
.	.	.	8cc#
=3	=3	=3	=3
2.r	4g	2.r	8b
.	.	.	8ee
.	4e	.	8dd
.	.	.	8cc#
.	4e#	.	8dd
.	.	.	8b
=4	=4	=4	=4
2.r	4.f#	4.r	4.a#
.	8r	8g	8r
.	4r	8f#	4r
.	.	8en	.
=5	=5	=5	=5
4d	2.r	4f#	4b
4c#	.	4e	4an
4B	.	4r	16g
.	.	.	{16f#
.	.	.	8g}
=6	=6	=6	=6
2A	2.r	2g	4.cc#
.	.	.	8dd
4A#	.	4f#	4ee
=7	=7	=7	=7
4B	2.r	4f#	8ee
.	.	.	8dd
2r	.	2g	8ee
.	.	.	8dd
.	.	.	8cc#
.	.	.	8b
=8	=8	=8	=8
4.r	4.f#	4.cc#	4.ff#
8e	8r	8r	8r
8d	4r	4r	4r
8c#	.	.	.
=9	=9	=9	=9
4B	4f#	4dd	4ff#
4r	4e	4dd	4gg
4r	4a	4cc#	8ff#
.	.	.	8ee
=10	=10	=10	=10
2.r	4.d	4.dd	4.ff#
.	8r	8r	8ee
.	4r	4r	8dd
.	.	.	8cc#
=11	=11	=11	=11
2.r	4g	2.r	8b
.	.	.	8ee
.	4e	.	8dd
.	.	.	8cc#
.	4e#	.	8dd
.	.	.	8b
=12	=12	=12	=12
2.r	4.f#	4.r	4.a#
.	8r	8g	8r
.	4r	8f#	4r
.	.	8en	.
=13	=13	=13	=13
4d	2.r	4f#	4b
4c#	.	4e	4an
4B	.	4r	16g
.	.	.	{16f#
.	.	.	8g}
=14	=14	=14	=14
2A	2.r	2g	4.cc#
.	.	.	8dd
4A#	.	4f#	4ee
=15	=15	=15	=15
4B	2.r	4f#	8ee
.	.	.	8dd
2r	.	2g	8ee
.	.	.	8dd
.	.	.	8cc#
.	.	.	8b
=16	=16	=16	=16
2.r	2.f#	2.cc#	2.ff#
=17	=17	=17	=17
2.r	4f#	4cc#	4aa#
.	4e	4cc#	4aa#
.	4f#	4cc#	4aa#
=18	=18	=18	=18
2.r	8d	8b	{8b
.	8r	8r	8ff#
.	4r	4r	8bb}
.	.	.	8aan
.	4r	4r	8gg#
.	.	.	8ff#
=19	=19	=19	=19
4d	4g#	4b	4ee
4c#	4a	4cc#	4ff#
4B	4	4ee	4gg#
=20	=20	=20	=20
4.A	4.e	4.ee	4.aa
8r	8r	8r	8ggn
4r	4r	4r	8ff#
.	.	.	8ee
=21	=21	=21	=21
4.a	2.r	2.r	8dd#
.	.	.	8cccn
.	.	.	8bb
8g	.	.	8ee
4f#	.	.	8dd
.	.	.	8aa
=22	=22	=22	=22
4e	2.r	2.r	{16ccn
.	.	.	16b
.	.	.	16cc
.	.	.	16a}
4d#	.	.	8b
.	.	.	8aa
4e	4r	4b	4gg
=23	=23	=23	=23
4A	4a	4ccn	8gg
.	.	.	8ff#
4B	4g	4b	8ff#
.	.	.	8ee
4B	4f#	4a	8ee
.	.	.	8dd#
=24	=24	=24	=24
4.e	2.r	2.r	4.ee
8d	.	.	8r
8c#	.	.	4r
8B	.	.	.
=25	=25	=25	=25
4A	4g	4cc#	4ee
4r	4r	4r	8dd
.	.	.	8cc#
4r	4g	4r	8b
.	.	.	8a
=26	=26	=26	=26
2.r	4f#	2r	4.dd
.	4e	.	.
.	.	.	8ee
.	4d	4a	4ff#
=27	=27	=27	=27
4G	4d	4b	4bb
4r	4e	4cc#	4gg
4r	4d	4dd	4ff#
=28	=28	=28	=28
2.r	2a	4.cc#	4.ee
.	.	8dd	8ff#
.	4r	{8ee	4gg
.	.	8cc#}	.
=29	=29	=29	=29
4c#	4e	8b	{8b
.	.	8r	16a#}
.	.	.	16gg
2r	2r	2r	{8ff#
.	.	.	8ee}
.	.	.	{8dd
.	.	.	8cc#}
=30	=30	=30	=30
2B	2f#	2r	4.dd
.	.	.	8ee
4A	4f#	4cc#	4ff#
=31	=31	=31	=31
4G	4g	4b	4ff#
4r	4r	4r	{8ee
.	.	.	8dd}
4e	4r	4r	{8cc#
.	.	.	8b}
=32	=32	=32	=32
4.f#	4.r	2.r	4.a#
8r	8g	.	8r
4r	8f#	.	4r
.	8e	.	.
=33	=33	=33	=33
4d	4f#	2.r	4b
4c#	4a#	.	4cc#
4B	4b	.	4dd
=34	=34	=34	=34
2.r	{8e	2.r	8dd
.	8g#	.	8r
.	8b}	.	8r
.	8r	.	8dd
.	4r	.	8gg#
.	.	.	8dd
=35	=35	=35	=35
4e	2r	2r	16cc#
.	.	.	{16b
.	.	.	8cc#}
4d	.	.	16dd
.	.	.	{16cc#
.	.	.	8dd}
4c#	4e	4b	4ee
=36	=36	=36	=36
4f#	2.r	{8a#	4ee
.	.	8b	.
2r	.	8cc#}	8r
.	.	8r	8ee
.	.	4r	8aa#
.	.	.	8ee
=37	=37	=37	=37
4f#	2.r	4dd	4bb
4e	.	4cc#	4aan
4d	.	4b	4gg
=38	=38	=38	=38
8c#	2.r	8e	8a#
8r	.	8r	8gg
4r	.	4r	8ff#
.	.	.	8ee
4B	.	4f#	4dd
=39	=39	=39	=39
4e	2.r	2.r	8r
.	.	.	8cc#
2f#	.	.	4.cc#
.	.	.	8b
=40	=40	=40	=40
2.B	2.r	2.f#	2.b
=41	=41	=41	=41
2.r	4f#	4cc#	4aa#
.	4e	4cc#	4aa#
.	4f#	4cc#	4aa#
=42	=42	=42	=42
2.r	8d	8b	{8b
.	8r	8r	8ff#
.	4r	4r	8bb}
.	.	.	8aan
.	4r	4r	8gg#
.	.	.	8ff#
=43	=43	=43	=43
4d	4g#	4b	4ee
4c#	4a	4cc#	4ff#
4B	4	4ee	4gg#
=44	=44	=44	=44
4.A	4.e	4.ee	4.aa
8r	8r	8r	8ggn
4r	4r	4r	8ff#
.	.	.	8ee
=45	=45	=45	=45
4.a	2.r	2.r	8dd#
.	.	.	8cccn
.	.	.	8bb
8g	.	.	8ee
4f#	.	.	8dd
.	.	.	8aa
=46	=46	=46	=46
4e	2.r	2.r	{16ccn
.	.	.	16b
.	.	.	16cc
.	.	.	16a}
4d#	.	.	8b
.	.	.	8aa
4e	4r	4b	4gg
=47	=47	=47	=47
4A	4a	4ccn	8gg
.	.	.	8ff#
4B	4g	4b	8ff#
.	.	.	8ee
4B	4f#	4a	8ee
.	.	.	8dd#
=48	=48	=48	=48
4.e	2.r	2.r	4.ee
8d	.	.	8r
8c#	.	.	4r
8B	.	.	.
=49	=49	=49	=49
4A	4g	4cc#	4ee
4r	4r	4r	8dd
.	.	.	8cc#
4r	4g	4r	8b
.	.	.	8a
=50	=50	=50	=50
2.r	4f#	2r	4.dd
.	4e	.	.
.	.	.	8ee
.	4d	4a	4ff#
=51	=51	=51	=51
4G	4d	4b	4bb
4r	4e	4cc#	4gg
4r	4d	4dd	4ff#
=52	=52	=52	=52
2.r	2a	4.cc#	4.ee
.	.	8dd	8ff#
.	4r	{8ee	4gg
.	.	8cc#}	.
=53	=53	=53	=53
4c#	4e	8b	{8b
.	.	8r	16a#}
.	.	.	16gg
2r	2r	2r	{8ff#
.	.	.	8ee}
.	.	.	{8dd
.	.	.	8cc#}
=54	=54	=54	=54
2B	2f#	2r	4.dd
.	.	.	8ee
4A	4f#	4cc#	4ff#
=55	=55	=55	=55
4G	4g	4b	4ff#
4r	4r	4r	{8ee
.	.	.	8dd}
4e	4r	4r	{8cc#
.	.	.	8b}
=56	=56	=56	=56
4.f#	4.r	2.r	4.a#
8r	8g	.	8r
4r	8f#	.	4r
.	8e	.	.
=57	=57	=57	=57
4d	4f#	2.r	4b
4c#	4a#	.	4cc#
4B	4b	.	4dd
=58	=58	=58	=58
2.r	{8e	2.r	8dd
.	8g#	.	8r
.	8b}	.	8r
.	8r	.	8dd
.	4r	.	8gg#
.	.	.	8dd
=59	=59	=59	=59
4e	2r	2r	16cc#
.	.	.	{16b
.	.	.	8cc#}
4d	.	.	16dd
.	.	.	{16cc#
.	.	.	8dd}
4c#	4e	4b	4ee
=60	=60	=60	=60
4f#	2.r	{8a#	4ee
.	.	8b	.
2r	.	8cc#}	8r
.	.	8r	8ee
.	.	4r	8aa#
.	.	.	8ee
=61	=61	=61	=61
4f#	2.r	4dd	4bb
4e	.	4cc#	4aan
4d	.	4b	4gg
=62	=62	=62	=62
8c#	2.r	8e	8a#
8r	.	8r	8gg
4r	.	4r	8ff#
.	.	.	8ee
4B	.	4f#	4dd
=63	=63	=63	=63
4e	2.r	2.r	8r
.	.	.	8cc#
2f#	.	.	4.cc#
.	.	.	8b
=64	=64	=64	=64
2.B	2.r	2.f#	2.b
==	==	==	==
*-	*-	*-	*-
